data/img/handle_scale_rest.svg

<?xml version="1.0" encoding="UTF-8" standalone="no"?>
<!-- Created with Inkscape (http://www.inkscape.org/) -->

<svg
   xmlns:dc="http://purl.org/dc/elements/1.1/"
   xmlns:cc="http://creativecommons.org/ns#"
   xmlns:rdf="http://www.w3.org/1999/02/22-rdf-syntax-ns#"
   xmlns:svg="http://www.w3.org/2000/svg"
   xmlns="http://www.w3.org/2000/svg"
   version="1.1"
   width="16"
   height="16"
   id="svg3074">
  <defs
     id="defs3076" />
  <metadata
     id="metadata3079">
    <rdf:RDF>
      <cc:Work
         rdf:about="">
        <dc:format>image/svg+xml</dc:format>
        <dc:type
           rdf:resource="http://purl.org/dc/dcmitype/StillImage" />
        <dc:title></dc:title>
      </cc:Work>
    </rdf:RDF>
  </metadata>
  <g
     id="layer1">
    <path
       d="M 4.8437502,4.4062502 0.50000014,8.0000002 4.8437502,11.59375 4.8437502,9.7187502 7.8750002,9.7187502 8.1250002,9.7187502 11.15625,9.7187502 11.15625,11.59375 15.5,8.0000002 11.15625,4.4062502 11.15625,6.2500002 8.1250002,6.2500002 7.8750002,6.2500002 4.8437502,6.2500002 4.8437502,4.4062502 z"
       id="path4456"
       style="color:#000000;fill:#000000;fill-opacity:1;stroke:#ffffff;stroke-width:0.5;stroke-linecap:square;stroke-linejoin:round;stroke-miterlimit:4;stroke-opacity:1;stroke-dasharray:none;stroke-dashoffset:0;marker:none;visibility:visible;display:inline;overflow:visible;enable-background:accumulate" />
  </g>
</svg>

<?xml version="1.0" encoding="UTF-8" standalone="no"?>
<!-- Created with Inkscape (http://www.inkscape.org/) -->
<svg id="svg3074" xmlns:rdf="http://www.w3.org/1999/02/22-rdf-syntax-ns#" xmlns="http://www.w3.org/2000/svg" height="16" width="16" version="1.1" xmlns:cc="http://creativecommons.org/ns#" xmlns:dc="http://purl.org/dc/elements/1.1/">
 <metadata id="metadata3079">
  <rdf:RDF>
   <cc:Work rdf:about="">
    <dc:format>image/svg+xml</dc:format>
    <dc:type rdf:resource="http://purl.org/dc/dcmitype/StillImage"/>
    <dc:title/>
   </cc:Work>
  </rdf:RDF>
 </metadata>
 <g id="layer1" transform="matrix(0.70710678,0.70710678,-0.70710678,0.70710678,8.0000001,-3.3137085)">
  <path id="path4456" stroke-linejoin="round" style="enable-background:accumulate;color:#000000;" d="m4.8438,4.4063-4.3438,3.5938,4.3438,3.5937,0-1.875,3.0312,0,0.25,0,3.0312,0,0,1.875,4.3438-3.5937-4.3438-3.5938,0,1.8438-3.0312,0-0.25,0-3.0312,0,0-1.8438z" stroke-dashoffset="0" stroke="#FFF" stroke-linecap="square" stroke-miterlimit="4" stroke-dasharray="none" stroke-width="0.5" fill="#000"/>
 </g>
</svg>
